svgs/sharp-solid/chimney.svg

<svg xmlns="http://www.w3.org/2000/svg" viewBox="0 0 448 512"><!--! Font Awesome Pro 6.6.0 by @fontawesome - https://fontawesome.com License - https://fontawesome.com/license (Commercial License) Copyright 2024 Fonticons, Inc. --><path d="M0 32l448 0 0 128L0 160 0 32zM32 192l96 0 0 128-96 0 0-128zm384 0l0 128-256 0 0-128 256 0zM288 352l0 128L32 480l0-128 256 0zm128 0l0 128-96 0 0-128 96 0z"/></svg>

<svg xmlns="http://www.w3.org/2000/svg" viewBox="0 0 448 512"><!--! Font Awesome Pro 6.4.2 by @fontawesome - https://fontawesome.com License - https://fontawesome.com/license (Commercial License) Copyright 2023 Fonticons, Inc. --><path d="M0 32H448V160H0V32zM32 192h96V320H32V192zm384 0V320H160V192H416zM288 352V480H32V352H288zm128 0V480H320V352h96z"/></svg>
